X:1
T:Title
%%score { ( 1 3 ) | ( 2 4 ) }
L:1/8
M:3/2
K:F
V:1 treble nm="Grand Piano"
V:3 treble 
V:2 bass 
V:4 bass 
V:1
 z4 z4 c4 | c2 A2 c4 A4 | [FA]2 [EG]2 [CFA]4 [B,EG]4 | [A,F]6 [CEG]2 [CFA]2 [DFB]2 | %4
 [FA]4 G4 [CGB]4 | z4 z4 A4 | [FB]2 [Fc]2 [Fd]4 [DFB]4 | [FA]6 [Ac]2 [GB]2 [EG]2 |[M:4/4] F8 | %9
[M:2/4] c4 |[M:6/4] G2 A2 B2- B2 c4 | F2 G2 A2- A2 c4 | d6 c2 B2 A2 | [EG]6- [EG]2 [EG]4 | %14
 z6 z2 A4 | [FB]2 [Fc]2 [Fd]2- [Fd]2 [DFB]4 | [CFA]6 [CAc]2 [CGB]2 [B,EG]2 |[M:4/4] [A,F]8 |] %18
V:2
 z4 z4 [F,A,F]4 | [F,A,F]2 [F,CF]2 [F,A,F]4 [F,CF]4 | [C,C]2 [C,C]2 F,4 C,4 | D,6 C,2 F,2 B,,2 | %4
 z4 E4 E,4 | [F,CF]2 [G,CE]2 [A,C]4 .[F,CF]4 | [D,B,]2 [C,A,]2 [B,,B,]4 B,,4 | %7
 [C,C]6 [C,C]2 [C,C]2 [C,B,]2 |[M:4/4] [F,A,]8 |[M:2/4][K:treble] [F,A,F]4 | %10
[M:6/4] [B,CE]2 [A,CF]2 [G,B,E]2- [G,B,E]2 [F,A,F]4 | [A,C]2 [G,CE]2 [F,CF]2- [F,CF]2 [A,CF]4 | %12
 [B,F]6 [A,CF]2[K:bass] [G,CE]2 [F,CF]2 | [C,C]6- [C,C]2 [C,C]4 | %14
 [F,CF]2 [G,CE]2 [A,CF]2- [A,CF]2 .[F,CF]4 | [D,B,]2 [C,A,]2 [B,,B,]2- [B,,B,]2 B,,4 | %16
 C,6 C,2 C,2 C,2 |[M:4/4] F,8 |] %18
V:3
 x12 | x12 | x12 | x12 | C8 z4 | A2 G2 F4 z2 _E,2 | x12 | x12 |[M:4/4] x8 |[M:2/4] x4 | %10
[M:6/4] x12 | x12 | x12 | x12 | A2 B2 c2- c2 z2 _E,2 | x12 | x12 |[M:4/4] x8 |] %18
V:4
 x12 | x12 | x12 | x12 | C,8 z4 | x12 | x12 | x12 |[M:4/4] x8 |[M:2/4][K:treble] x4 |[M:6/4] x12 | %11
 x12 | x8[K:bass] x4 | x12 | x12 | x12 | x12 |[M:4/4] x8 |] %18

